scenes/tracker/img/pin.svg

<?xml version="1.0" encoding="UTF-8" standalone="no"?>
<svg width="35px" height="100px" viewBox="0 0 35 100" version="1.1" xmlns="http://www.w3.org/2000/svg" xmlns:xlink="http://www.w3.org/1999/xlink" xmlns:sketch="http://www.bohemiancoding.com/sketch/ns">
    <!-- Generator: Sketch 3.2 (9964) - http://www.bohemiancoding.com/sketch -->
    <title>Group + Rectangle 1</title>
    <desc>Created with Sketch.</desc>
    <defs></defs>
    <g id="Page-1" stroke="none" stroke-width="1" fill="none" fill-rule="evenodd" sketch:type="MSPage">
        <g id="Group-+-Rectangle-1" sketch:type="MSLayerGroup">
            <g id="Group" sketch:type="MSShapeGroup">
                <rect id="Rectangle-1" opacity="0.01" fill="#D8D8D8" x="0" y="0" width="35" height="100"></rect>
                <path d="M9.77500017,25.927 L2.44900017,16.732 C0.869000171,14.94 1.70964661e-07,12.65 1.70964661e-07,10.276 C-0.000999829035,4.886 4.38500017,0.5 9.77500017,0.5 C15.1660002,0.5 19.5510002,4.885 19.5510002,10.276 C19.5510002,12.652 18.6850002,14.934 17.1090002,16.724 L17.0630002,16.783 L9.77500017,25.927 L9.77500017,25.927 Z M9.77500017,4.89 C6.80500017,4.89 4.38900017,7.307 4.38900017,10.276 C4.38900017,11.591 4.87800017,12.863 5.76500017,13.856 L5.84500017,13.951 L9.77500017,18.883 L12.9440002,14.907 L12.9190002,14.81 L13.7300002,13.917 C14.6530002,12.915 15.1610002,11.622 15.1610002,10.276 C15.1610002,7.306 12.7450002,4.89 9.77500017,4.89 L9.77500017,4.89 Z" id="Shape" fill="#F1C143"></path>
                <path d="M24.9370002,25.927 L17.6100002,16.732 C16.0300002,14.94 15.1610002,12.651 15.1610002,10.276 C15.1610002,4.886 19.5470002,0.5 24.9370002,0.5 C30.3270002,0.5 34.7130002,4.885 34.7130002,10.276 C34.7130002,12.653 33.8470002,14.934 32.2700002,16.725 L32.2250002,16.783 L24.9370002,25.927 L24.9370002,25.927 Z M24.9370002,4.89 C21.9670002,4.89 19.5510002,7.307 19.5510002,10.276 C19.5510002,11.591 20.0400002,12.863 20.9270002,13.856 L21.0070002,13.951 L24.9370002,18.883 L28.1070002,14.906 L28.0820002,14.809 L28.8920002,13.917 C29.8150002,12.915 30.3230002,11.622 30.3230002,10.276 C30.3230002,7.306 27.9070002,4.89 24.9370002,4.89 L24.9370002,4.89 Z" id="Shape" fill="#F1C143"></path>
                <path d="M32.6800002,25.512 C32.6800002,17.187 25.9290002,10.439 17.6070002,10.439 C9.28400017,10.439 2.53400017,17.187 2.53400017,25.512 C2.53400017,29.365 3.99700017,32.872 6.38100017,35.538 L17.6070002,49.628 L28.6850002,35.729 L28.6790002,35.709 C31.1540002,33.023 32.6800002,29.447 32.6800002,25.512 L32.6800002,25.512 Z" id="Shape" fill="#D14437"></path>
                <path d="M14.3320002,10.673 L14.3320002,45.518 L17.6070002,49.628 L20.8820002,45.518 L20.8820002,10.673 C19.8270002,10.442 18.7330002,10.307 17.6070002,10.307 C16.4810002,10.307 15.3860002,10.442 14.3320002,10.673 L14.3320002,10.673 Z" id="Shape" fill="#F1C143"></path>
                <path d="M22.8260002,25.512 C22.8260002,28.393 20.4880002,30.731 17.6070002,30.731 C14.7230002,30.731 12.3880002,28.393 12.3880002,25.512 C12.3880002,22.625 14.7230002,20.288 17.6070002,20.288 C20.4880002,20.288 22.8260002,22.625 22.8260002,25.512 L22.8260002,25.512 Z" id="Shape" fill="#FFFFFF"></path>
                <path id="Shape" fill="#CCCECF" d="M17.277,45.011 L17.057,45.011 L17.167,44.721 L17.277,45.011 Z"></path>
                <path id="Shape" fill="#CCCECF" d="M17.277,45.011 L17.057,45.011 L17.167,44.721 L17.277,45.011 Z"></path>
            </g>
        </g>
    </g>
</svg>

<svg width="35" height="100" viewBox="0 0 35 100" xmlns="http://www.w3.org/2000/svg"><title>Group + Rectangle 1</title><g fill="none" fill-rule="evenodd"><path opacity=".01" fill="#D8D8D8" d="M0 0h35v100H0z"/><path d="M9.775 25.927L2.45 16.732A9.755 9.755 0 0 1 0 10.276C0 4.886 4.385.5 9.775.5c5.39 0 9.776 4.385 9.776 9.776a9.74 9.74 0 0 1-2.44 6.448l-.047.06-7.288 9.143zm0-21.037a5.393 5.393 0 0 0-5.386 5.386c0 1.315.488 2.587 1.375 3.58l.08.095 3.93 4.933 3.17-3.976-.026-.097.81-.893a5.365 5.365 0 0 0 1.43-3.64A5.392 5.392 0 0 0 9.776 4.89z" fill="#F1C143"/><path d="M24.937 25.927l-7.327-9.195a9.753 9.753 0 0 1-2.45-6.456C15.16 4.886 19.548.5 24.938.5s9.776 4.385 9.776 9.776a9.738 9.738 0 0 1-2.443 6.45l-.045.057-7.288 9.144zm0-21.037a5.393 5.393 0 0 0-5.386 5.386c0 1.315.49 2.587 1.377 3.58l.08.095 3.93 4.933 3.17-3.977-.025-.097.81-.893a5.365 5.365 0 0 0 1.43-3.64 5.392 5.392 0 0 0-5.385-5.387z" fill="#F1C143"/><path d="M32.68 25.512c0-8.325-6.75-15.073-15.073-15.073S2.534 17.186 2.534 25.51c0 3.853 1.463 7.36 3.847 10.026l11.227 14.09 11.078-13.9-.006-.02c2.474-2.685 4-6.26 4-10.196z" fill="#D14437"/><path d="M14.332 10.673v34.845l3.275 4.11 3.275-4.11V10.673a15.287 15.287 0 0 0-3.275-.366c-1.126 0-2.22.135-3.275.366z" fill="#F1C143"/><path d="M22.826 25.512a5.22 5.22 0 0 1-10.438 0 5.22 5.22 0 0 1 10.438 0z" fill="#FFF"/><path fill="#CCCECF" d="M17.277 45.01h-.22l.11-.29.11.29z"/><path fill="#CCCECF" d="M17.277 45.01h-.22l.11-.29.11.29z"/></g></svg>
